X: 10843
P: The bars marked * may be omitted at pleasure.
Q: "Sprightly Jig time."
M: 6/8
L: 1/8
K: G
d/c/ |\
cAA EAA | cAA edc |\
e>fg d(c/B/)(A/G/) | dGG B>cd |\
"_*"g6 |
eAA EAA | cAA eHdc |\
gee fdd | ecc gd2 |\
(B3 "_*"A2)G |\
efg d(c/B/)(A/G/) | dGG B/c/d |]


